usr/share/icons/biglinux-icons-material/16/actions/view-financial-account-asset.svg

<svg viewBox="0 0 16 16" xmlns="http://www.w3.org/2000/svg">
    <style type="text/css" id="current-color-scheme">
        .ColorScheme-Text {
        color:#dedede;
    }
    </style>
<path
    d="m4.1914062 3-2.1914062 4.3828125v4.6171875h1v2h2v-2h6v2h2v-2h1v-4.6191406l-2.191406-4.3808594zm.6171876 1h6.3828122l1.5 3h-9.3828122zm-1.8085938 4h10v3h-10zm1 1v1h1v-1zm7 0v1h1v-1z"
    style="fill:currentColor;fill-opacity:1;stroke:none"
    class="ColorScheme-Text"
    />
</svg>

<svg xmlns="http://www.w3.org/2000/svg" viewBox="0 0 16 16"><path d="M4.191 3 2 7.383V12h1v2h2v-2h6v2h2v-2h1V7.38L11.809 3zm.618 1h6.382l1.5 3H3.31zM3 8h10v3H3zm1 1v1h1V9zm7 0v1h1V9z" style="fill:currentColor;fill-opacity:1;stroke:none;color:#dedede"/></svg>
